!!!COM: Palestrina, Giovanni Perluigi da
!!!OPR: Ave regina coelorum
!!!OTL: Agnus I
**kern	**kern	**kern	**kern
*Ibass	*Itenor	*Icalto	*Icant
!Bassus	!Tenor	!Altus	!Cantus
*clefF4	*clefGv2	*clefG2	*clefG2
*k[]	*k[]	*k[]	*k[]
*C:ion	*C:ion	*C:ion	*C:ion
*M4/2	*M4/2	*M4/2	*M4/2
=1	=1	=1	=1
0r	0r	2.c	0cc
.	.	4d	.
.	.	2e	.
.	.	2f	.
=2	=2	=2	=2
0r	0r	2d	1b
.	.	1g	.
.	.	.	1a
.	.	2f#	.
=3	=3	=3	=3
2.G	0r	2.g	1b
4A	.	4f	.
2B	.	2d	1g
2c	.	2e	.
=4	=4	=4	=4
2F	0r	4f	2a
.	.	4e	.
2A	.	4d	1cc
.	.	4c	.
1G	.	1d	.
.	.	.	2b
=5	=5	=5	=5
2.C	0c	2.e	0cc
4D	.	4f	.
2E	.	2g	.
2F	.	[2a	.
=6	=6	=6	=6
1G	1B	2a]	2r
.	.	1g	2dd
1D	1A	.	2dd
.	.	2f#	[2dd
=7	=7	=7	=7
1.G	1B	0g	4dd]
.	.	.	4cc
.	.	.	4b
.	.	.	4a
.	1G	.	2b
2E	.	.	[2cc
=8	=8	=8	=8
2.F	2.A	2.cc	4cc]
.	.	.	4b
.	.	.	4a
4G	4B	4b	4g
4A	1c	2a	2f
4B	.	.	.
2c	.	2g	2e
=9	=9	=9	=9
1F	2A	2.f	1a
.	1c	.	.
.	.	4e	.
1G	.	1d	1g
.	2B	.	.
=10	=10	=10	=10
1r	1c	2e	1g
.	.	1c	.
1F	1r	.	1a
.	.	[2d	.
=11	=11	=11	=11
1G	1r	2d]	1b
.	.	1e	.
1A	1c	.	2r
.	.	2e	2a
=12	=12	=12	=12
1D	1d	2.f	2a
.	.	.	2b
.	.	4g	.
1A	1e	[1a	1cc
=13	=13	=13	=13
1E	1e	2a]	2.b
.	.	2g	.
.	.	.	4cc
2r	2d	2f	2dd
2A	2e	[2e	[2cc
=14	=14	=14	=14
2A	1f	2e]	2cc]
2B	.	2d	4b
.	.	.	4a
1c	2e	1e	2g
.	4d	.	2cc
.	4c	.	.
=15	=15	=15	=15
2.G	0d	1g	4b
.	.	.	4cc
.	.	.	4dd
8F	.	.	4ee
8E	.	.	.
4D	.	1a	1ff
4E	.	.	.
4F	.	.	.
4G	.	.	.
=16	=16	=16	=16
2A	2c	2a	2ee
2F	2A	2.a	4dd
.	.	.	4cc
2E	2B	.	1ee
.	.	4g	.
2C	2c	[2g	.
=17	=17	=17	=17
0D	1A	2g]	1dd
.	.	4f#	.
.	.	4e	.
.	1A	1f#	2dd
.	.	.	[2dd
=18	=18	=18	=18
1r	2B	0g	2dd]
.	2c	.	2cc
1G	1d	.	1b
=19	=19	=19	=19
1F	0r	1.cc	1a
1D	.	.	[1ff
.	.	2b	.
=20	=20	=20	=20
1C	0r	2a	2ff]
.	.	2g	2ee
1F	.	2f	2dd
.	.	2a	[2cc
=21	=21	=21	=21
1G	1d	2.g	2cc]
.	.	.	2b
.	.	4f	.
2.A	1c	4e	4a
.	.	4d	4b
.	.	[2e	4cc
4B	.	.	4dd
=22	=22	=22	=22
4c	1A	4e]	2.ee
4d	.	4d	.
1c	.	4e	.
.	.	4c	4ff
.	1G	1d	1gg
2B	.	.	.
=23	=23	=23	=23
1c	0r	2c	1ee
.	.	1cc	.
1G	.	.	1dd
.	.	2b	.
=24	=24	=24	=24
1C	1c	2a	1cc
.	.	2.g	.
1r	1d	.	1a
.	.	8f#	.
.	.	8e	.
.	.	2f#	.
=25	=25	=25	=25
2.c	1e	4g	1g
.	.	4f	.
.	.	4e	.
4B	.	4d	.
4A	[1f	4c	1cc
4G	.	4B	.
4F	.	2A	.
4E	.	.	.
=26	=26	=26	=26
2D	2f]	1a	2dd
2C	2e	.	2ee
2D	[1d	1a	4ff
.	.	.	4ee
2D	.	.	4dd
.	.	.	4cc
=27	=27	=27	=27
1G	1d]	1g	4b
.	.	.	4a
.	.	.	2b
2C	1c	1e	1cc
[2c	.	.	.
=28	=28	=28	=28
2c]	0r	1d	2r
4B	.	.	1dd
4A	.	.	.
2B	.	1g	.
[2c	.	.	[2ee
=29	=29	=29	=29
4c]	1r	1a	2ee]
4A	.	.	.
2d	.	.	2ff#
1G	1d	1b	2.gg
.	.	.	4ff
=30	=30	=30	=30
0r	1c	1.cc	4ee
.	.	.	4dd
.	.	.	1ee
.	1A	.	.
.	.	4b	4dd
.	.	4a	4cc
=31	=31	=31	=31
2r	1G	4b	2dd
.	.	4a	.
2G	.	4g	2b
.	.	4f	.
1A	1c	2e	1cc
.	.	2f#	.
=32	=32	=32	=32
2B	1d	1g	2r
2B	.	.	1g
4c	1e	2r	.
4B	.	.	.
4A	.	[2c	[2a
4G	.	.	.
=33	=33	=33	=33
4F	1f	2c]	2a]
4E	.	.	.
2D	.	2d	2b
2C	1e	1g	1cc
[2c	.	.	.
=34	=34	=34	=34
2c]	0d	1.G	1dd
4B	.	.	.
4A	.	.	.
1B	.	.	2dd
.	.	2d	2g
=35	=35	=35	=35
1A	2c	2e	2a
.	2c	2f#	1cc
1G	2d	1g	.
.	2e	.	2b
=36	=36	=36	=36
1F	1f	1a	4a
.	.	.	4b
.	.	.	4cc
.	.	.	4dd
2.C	[1e	[1g	4ee
.	.	.	4ff
.	.	.	4gg
4D	.	.	4ff
=37	=37	=37	=37
2.E	1e]	0g]	4ee
.	.	.	4dd
.	.	.	2.cc
4F	.	.	.
1G	1d	.	.
.	.	.	8b
.	.	.	8a
.	.	.	2b
=38	=38	=38	=38
0C	0c	0e	0cc
==	==	==	==
*-	*-	*-	*-
!!!CDT: 1525/^1526/-1594/2/2
!!!OCY: Italia
!!!AGN: Mass (Paraphrase)
!!!AST: renaissance, vocal
!!!ASW: Antiphon
!!!PWK: Masses, Book 9
!!!RNB: Cadence finals: G
!!!YOR: Le Opere Complete, v. 25, p. 1
!!!YOO: Rome, Italy: Fratelli Scalera
!!!END: 1992//
!!!EED: John Miller
!!!YEC: Copyright 2000, John Miller
!!!YEN: United States of America
!!!YEM: Rights to all derivative electronic formats reserved.
!!!YEM: Refer to licensing agreement for further details.
!!!YEM: This file must be accompanied by the licensing agreement.
!!!YEM: A copy of the licensing agreement may be found at http://www.music-cog.ohio-state.edu/HumdrumDatabases/Palestrina/license.txt
!!!EMD: converted to Humdrum by Bret Aarden
